X:1
T:Drei Laendler aus der sammlung Hoerburger
C:traditionell
A:Bayern
%%textfont Helvetica-Narrow 10pt
%%begintext align
S:noten-material (lose kopien) von Michael Kellner, Regensburg
%%endtext 
F:http://simonwascher.info 
Z:abc transcription Simon Wascher
M:3/4
L:1/4
K:G
G |\
G>FG | Fdc | F>AF | GdB |\
G>FG | Fdc | c/F/FD/F/ | G2 :|
|: d |\
edc | cB/G/B/G/ | BA/F/A/F/ | c>BA/B/ |
edc | cB/G/B/G/ | BA/F/A/c/ | B2 :|
|: G/B/ |\
dB>G | FA/D/F/A/ | dc>F | GB/D/G/B/ |\
dB>G | FA/D/F/A/ | dc>F | G2 :|
%%wordsfont Times-Italic 11pt
W:aus Simon Waschers TradArchiv
